;FLAVOR:Marlin
;TIME:30511
;Filament used: 30.5395m
;Layer height: 0.2
;MINX:47.2
;MINY:14.2
;MINZ:0.2
;MAXX:172.8
;MAXY:205.8
;MAXZ:36
;Generated with Cura_SteamEngine 4.13.0
M140 S80
M105
M190 S80
M104 S200
M105
M109 S200
M82 ;absolute extrusion mode
M201 X500.00 Y500.00 Z100.00 E5000.00 ;Setup machine max acceleration
M203 X500.00 Y500.00 Z10.00 E50.00 ;Setup machine max feedrate
M204 P500.00 R1000.00 T500.00 ;Setup Print/Retract/Travel acceleration
M205 X8.00 Y8.00 Z0.40 E5.00 ;Setup Jerk
M220 S100 ;Reset Feedrate
M221 S100 ;Reset Flowrate

G28 ;Home

G92 E0 ;Reset Extruder
G1 Z2.0 F3000 ;Move Z Axis up
G1 X10.1 Y20 Z0.28 F5000.0 ;Move to start position
G1 X10.1 Y200.0 Z0.28 F1500.0 E15 ;Draw the first line
G1 X10.4 Y200.0 Z0.28 F5000.0 ;Move to side a little
G1 X10.4 Y20 Z0.28 F1500.0 E30 ;Draw the second line
G92 E0 ;Reset Extruder
G1 Z2.0 F3000 ;Move Z Axis up

G92 E0
G92 E0
G1 F2700 E-5
;LAYER_COUNT:180
;LAYER:0
M107
G0 F6000 X47.831 Y18.926 Z0.2
;TYPE:SKIRT
G1 F2700 E0
G1 F1200 X48.179 Y18.217 E0.02627
G1 X48.597 Y17.546 E0.05256
G1 X49.08 Y16.922 E0.07881
G1 X49.623 Y16.349 E0.10506
G1 X50.222 Y15.834 E0.13134
G1 X50.87 Y15.383 E0.1576
G1 X51.561 Y14.999 E0.18389
G1 X52.286 Y14.687 E0.21014
G1 X53.039 Y14.45 E0.2364
G1 X53.813 Y14.291 E0.26268
G1 X54.598 Y14.21 E0.28893
G1 X55 Y14.2 E0.3023
G1 X165 Y14.2 E3.96092
G1 X165.789 Y14.24 E3.98719
G1 X166.569 Y14.359 E4.01343
G1 X167.334 Y14.557 E4.03972
G1 X168.074 Y14.831 E4.06596
G1 X168.783 Y15.179 E4.09223
G1 X169.454 Y15.597 E4.11853
G1 X170.078 Y16.08 E4.14477
G1 X170.651 Y16.623 E4.17103
G1 X171.166 Y17.222 E4.1973
G1 X171.617 Y17.87 E4.22356
G1 X172.001 Y18.561 E4.24985
G1 X172.313 Y19.286 E4.2761
G1 X172.55 Y20.039 E4.30236
G1 X172.709 Y20.813 E4.32864
G1 X172.79 Y21.598 E4.35489
G1 X172.8 Y22 E4.36826
G1 X172.8 Y98 E6.89603
G1 X172.76 Y98.789 E6.92231
G1 X172.641 Y99.569 E6.94855
G1 X172.443 Y100.334 E6.97484
G1 X172.169 Y101.074 E7.00108
G1 X171.821 Y101.783 E7.02735
G1 X171.403 Y102.454 E7.05364
G1 X170.92 Y103.078 E7.07989
G1 X170.377 Y103.651 E7.10615
G1 X169.778 Y104.166 E7.13242
G1 X169.13 Y104.617 E7.15868
G1 X168.439 Y105.001 E7.18497
G1 X167.714 Y105.313 E7.21122
G1 X166.961 Y105.55 E7.23748
G1 X166.187 Y105.709 E7.26376
G1 X165.402 Y105.79 E7.29001
G1 X165 Y105.8 E7.30338
G1 X55 Y105.8 E10.962
G1 X54.211 Y105.76 E10.98827
G1 X53.431 Y105.641 E11.01452
G1 X52.666 Y105.443 E11.0408
G1 X51.926 Y105.169 E11.06704
G1 X51.217 Y104.821 E11.09331
G1 X50.546 Y104.403 E11.11961
G1 X49.922 Y103.92 E11.14585
G1 X49.349 Y103.377 E11.17211
G1 X48.834 Y102.778 E11.19838
G1 X48.383 Y102.13 E11.22464
G1 X47.999 Y101.439 E11.25093
G1 X47.687 Y100.714 E11.27719
G1 X47.45 Y99.961 E11.30344
G1 X47.291 Y99.187 E11.32972
G1 X47.21 Y98.402 E11.35597
G1 X47.2 Y98 E11.36935
G1 X47.2 Y22 E13.89712
G1 X47.24 Y21.211 E13.92339
G1 X47.359 Y20.431 E13.94963
G1 X47.557 Y19.666 E13.97592
G1 X47.831 Y18.926 E14.00216
G0 F6000 X48.231 Y19.01
G1 F1200 X48.578 Y18.324 E14.02773
G1 X48.994 Y17.677 E14.05332
G1 X49.475 Y17.077 E14.07889
G1 X50.016 Y16.53 E14.10448
G1 X50.611 Y16.042 E14.13008
G1 X51.253 Y15.619 E14.15565
G1 X51.936 Y15.264 E14.18125
G1 X52.651 Y14.983 E14.2068
G1 X53.393 Y14.777 E14.23241
G1 X54.151 Y14.649 E14.25798
G1 X55 Y14.6 E14.28627
G1 X165 Y14.6 E17.94488
G1 X165.768 Y14.64 E17.97046
G1 X166.528 Y14.759 E17.99604
G1 X167.271 Y14.957 E18.02162
G1 X167.99 Y15.231 E18.04721
G1 X168.676 Y15.578 E18.07278
G1 X169.323 Y15.994 E18.09836
G1 X169.923 Y16.475 E18.12394
G1 X170.47 Y17.016 E18.14953
G1 X170.958 Y17.611 E18.17512
G1 X171.381 Y18.253 E18.2007
G1 X171.736 Y18.936 E18.2263
G1 X172.017 Y19.651 E18.25185
G1 X172.223 Y20.393 E18.27746
G1 X172.351 Y21.151 E18.30303
G1 X172.4 Y22 E18.33131
G1 X172.4 Y98 E20.85908
G1 X172.36 Y98.768 E20.88466
G1 X172.241 Y99.528 E20.91025
G1 X172.043 Y100.271 E20.93582
G1 X171.769 Y100.99 E20.96141
G1 X171.422 Y101.676 E20.98698
G1 X171.006 Y102.323 E21.01257
G1 X170.525 Y102.923 E21.03814
G1 X169.984 Y103.47 E21.06373
G1 X169.389 Y103.958 E21.08933
G1 X168.747 Y104.381 E21.1149
G1 X168.064 Y104.736 E21.1405
G1 X167.349 Y105.017 E21.16605
G1 X166.607 Y105.223 E21.19167
G1 X165.849 Y105.351 E21.21723
G1 X165 Y105.4 E21.24552
G1 X55 Y105.4 E24.90413
G1 X54.232 Y105.36 E24.92971
G1 X53.472 Y105.241 E24.9553
G1 X52.729 Y105.043 E24.98087
G1 X52.01 Y104.769 E25.00646
G1 X51.324 Y104.422 E25.03203
G1 X50.677 Y104.006 E25.05762
G1 X50.077 Y103.525 E25.08319
G1 X49.53 Y102.984 E25.10878
G1 X49.042 Y102.389 E25.13438
G1 X48.619 Y101.747 E25.15995
G1 X48.264 Y101.064 E25.18555
G1 X47.983 Y100.349 E25.2111
G1 X47.777 Y99.607 E25.23671
G1 X47.649 Y98.849 E25.26228
G1 X47.6 Y98 E25.29057
G1 X47.6 Y22 E27.81834
G1 X47.64 Y21.232 E27.84392
G1 X47.759 Y20.472 E27.8695
G1 X47.957 Y19.729 E27.89508
G1 X48.231 Y19.01 E27.92067
G0 F6000 X48.63 Y19.097
G1 F1200 X48.977 Y18.434 E27.94556
G1 X49.392 Y17.811 E27.97045
G1 X49.871 Y17.237 E27.99532
G1 X50.408 Y16.716 E28.0202
G1 X50.998 Y16.257 E28.04507
G1 X51.634 Y15.862 E28.06997
G1 X52.308 Y15.538 E28.09484
G1 X53.013 Y15.288 E28.11972
G1 X53.741 Y15.114 E28.14462
G1 X54.483 Y15.019 E28.1695
G1 X55 Y15 E28.1867
G1 X165 Y15 E31.84532
G1 X165.747 Y15.04 E31.8702
G1 X166.485 Y15.159 E31.89506
G1 X167.207 Y15.357 E31.91996
G1 X167.903 Y15.63 E31.94483
G1 X168.566 Y15.977 E31.96972
G1 X169.189 Y16.392 E31.99462
G1 X169.763 Y16.871 E32.01948
G1 X170.284 Y17.408 E32.04437
G1 X170.743 Y17.998 E32.06923
G1 X171.138 Y18.634 E32.09413
G1 X171.462 Y19.308 E32.119
G1 X171.712 Y20.013 E32.14388
G1 X171.886 Y20.741 E32.16878
G1 X171.981 Y21.483 E32.19366
G1 X172 Y22 E32.21087
G1 X172 Y98 E34.73864
G1 X171.96 Y98.747 E34.76352
G1 X171.841 Y99.485 E34.78838
G1 X171.643 Y100.207 E34.81328
G1 X171.37 Y100.903 E34.83815
G1 X171.023 Y101.566 E34.86304
G1 X170.608 Y102.189 E34.88793
G1 X170.129 Y102.763 E34.9128
G1 X169.592 Y103.284 E34.93768
G1 X169.002 Y103.743 E34.96255
G1 X168.366 Y104.138 E34.98745
G1 X167.692 Y104.462 E35.01232
G1 X166.987 Y104.712 E35.0372
G1 X166.259 Y104.886 E35.06209
G1 X165.517 Y104.981 E35.08697
G1 X165 Y105 E35.10418
G1 X55 Y105 E38.7628
G1 X54.253 Y104.96 E38.78768
G1 X53.515 Y104.841 E38.81254
G1 X52.793 Y104.643 E38.83744
G1 X52.097 Y104.37 E38.86231
G1 X51.434 Y104.023 E38.8872
G1 X50.811 Y103.608 E38.91209
G1 X50.237 Y103.129 E38.93696
G1 X49.716 Y102.592 E38.96184
G1 X49.257 Y102.002 E38.98671
G1 X48.862 Y101.366 E39.01161
G1 X48.538 Y100.692 E39.03648
G1 X48.288 Y99.987 E39.06136
G1 X48.114 Y99.259 E39.08626
G1 X48.019 Y98.517 E39.11114
G1 X48 Y98 E39.12834
G1 X48 Y22 E41.65611
G1 X48.04 Y21.253 E41.68099
G1 X48.159 Y20.515 E41.70586
G1 X48.357 Y19.793 E41.73076
G1 X48.63 Y19.097 E41.75562
G0 F6000 X49.03 Y19.186
G1 F1200 X49.375 Y18.547 E41.77978
G1 X49.789 Y17.95 E41.80394
G1 X50.265 Y17.402 E41.82808
G1 X50.799 Y16.909 E41.85226
G1 X51.384 Y16.479 E41.8764
G1 X52.013 Y16.115 E41.90058
G1 X52.678 Y15.822 E41.92474
G1 X53.371 Y15.604 E41.94891
G1 X54.083 Y15.464 E41.97304
G1 X55 Y15.4 E42.00362
G1 X165 Y15.4 E45.66223
G1 X165.725 Y15.44 E45.68638
G1 X166.442 Y15.559 E45.71056
G1 X167.141 Y15.757 E45.73472
G1 X167.814 Y16.03 E45.75887
G1 X168.453 Y16.375 E45.78303
G1 X169.05 Y16.789 E45.80719
G1 X169.598 Y17.265 E45.83133
G1 X170.091 Y17.799 E45.85551
G1 X170.521 Y18.384 E45.87965
G1 X170.885 Y19.013 E45.90383
G1 X171.178 Y19.678 E45.92799
G1 X171.396 Y20.371 E45.95216
G1 X171.536 Y21.083 E45.97629
G1 X171.6 Y22 E46.00687
G1 X171.6 Y98 E48.53464
G1 X171.56 Y98.725 E48.55879
G1 X171.441 Y99.442 E48.58296
G1 X171.243 Y100.141 E48.60712
G1 X170.97 Y100.814 E48.63128
G1 X170.625 Y101.453 E48.65543
G1 X170.211 Y102.05 E48.6796
G1 X169.735 Y102.598 E48.70374
G1 X169.201 Y103.091 E48.72791
G1 X168.616 Y103.521 E48.75206
G1 X167.987 Y103.885 E48.77623
G1 X167.322 Y104.178 E48.8004
G1 X166.629 Y104.396 E48.82456
G1 X165.917 Y104.536 E48.8487
G1 X165 Y104.6 E48.87927
G1 X55 Y104.6 E52.53789
G1 X54.275 Y104.56 E52.56204
G1 X53.558 Y104.441 E52.58621
G1 X52.859 Y104.243 E52.61037
G1 X52.186 Y103.97 E52.63453
G1 X51.547 Y103.625 E52.65868
G1 X50.95 Y103.211 E52.68285
G1 X50.402 Y102.735 E52.70699
G1 X49.909 Y102.201 E52.73116
G1 X49.479 Y101.616 E52.75531
G1 X49.115 Y100.987 E52.77948
G1 X48.822 Y100.322 E52.80365
G1 X48.604 Y99.629 E52.82781
G1 X48.464 Y98.917 E52.85195
G1 X48.4 Y98 E52.88252
G1 X48.4 Y22 E55.41029
G1 X48.44 Y21.275 E55.43444
G1 X48.559 Y20.558 E55.45862
G1 X48.757 Y19.859 E55.48278
G1 X49.03 Y19.186 E55.50693
G0 F6000 X49.429 Y19.279
G1 F1200 X49.774 Y18.665 E55.53036
G1 X50.185 Y18.094 E55.55376
G1 X50.659 Y17.573 E55.57719
G1 X51.189 Y17.109 E55.60061
G1 X51.768 Y16.709 E55.62402
G1 X52.389 Y16.377 E55.64744
G1 X53.043 Y16.117 E55.67085
G1 X53.723 Y15.933 E55.69428
G1 X54.419 Y15.827 E55.7177
G1 X55 Y15.8 E55.73704
G1 X165 Y15.8 E59.39566
G1 X165.703 Y15.84 E59.41908
G1 X166.397 Y15.959 E59.44249
G1 X167.072 Y16.157 E59.46589
G1 X167.721 Y16.429 E59.4893
G1 X168.335 Y16.774 E59.51272
G1 X168.906 Y17.185 E59.53612
G1 X169.427 Y17.659 E59.55955
G1 X169.891 Y18.189 E59.58298
G1 X170.291 Y18.768 E59.60638
G1 X170.623 Y19.389 E59.6298
G1 X170.883 Y20.043 E59.65321
G1 X171.067 Y20.723 E59.67664
G1 X171.173 Y21.419 E59.70006
G1 X171.2 Y22 E59.7194
G1 X171.2 Y98 E62.24717
G1 X171.16 Y98.703 E62.27059
G1 X171.041 Y99.397 E62.29401
G1 X170.843 Y100.072 E62.31741
G1 X170.571 Y100.721 E62.34081
G1 X170.226 Y101.335 E62.36424
G1 X169.815 Y101.906 E62.38764
G1 X169.341 Y102.427 E62.41107
G1 X168.811 Y102.891 E62.43449
G1 X168.232 Y103.291 E62.4579
G1 X167.611 Y103.623 E62.48132
G1 X166.957 Y103.883 E62.50473
G1 X166.277 Y104.067 E62.52816
G1 X165.581 Y104.173 E62.55158
G1 X165 Y104.2 E62.57092
G1 X55 Y104.2 E66.22954
G1 X54.297 Y104.16 E66.25296
G1 X53.603 Y104.041 E66.27637
G1 X52.928 Y103.843 E66.29977
G1 X52.279 Y103.571 E66.32318
G1 X51.665 Y103.226 E66.3466
G1 X51.094 Y102.815 E66.37
G1 X50.573 Y102.341 E66.39343
G1 X50.109 Y101.811 E66.41686
G1 X49.709 Y101.232 E66.44026
G1 X49.377 Y100.611 E66.46368
G1 X49.117 Y99.957 E66.48709
G1 X48.933 Y99.277 E66.51052
G1 X48.827 Y98.581 E66.53394
G1 X48.8 Y98 E66.55328
G1 X48.8 Y22 E69.08105
G1 X48.84 Y21.297 E69.10447
G1 X48.959 Y20.603 E69.12789
G1 X49.157 Y19.928 E69.15129
G1 X49.429 Y19.279 E69.17469
G0 F6000 X49.556 Y19.998
G1 F1200 X49.828 Y19.374 E69.19733
G1 X50.172 Y18.786 E69.21999
G1 X50.582 Y18.242 E69.24265
G1 X51.053 Y17.751 E69.26528
G1 X51.578 Y17.317 E69.28793
G1 X52.15 Y16.948 E69.31057
G1 X52.762 Y16.649 E69.33323
G1 X53.404 Y16.424 E69.35586
G1 X54.069 Y16.275 E69.37852
G1 X55 Y16.2 E69.40959
G1 X165 Y16.2 E73.0682
G1 X165.68 Y16.24 E73.09086
G1 X166.35 Y16.359 E73.11349
G1 X167.002 Y16.556 E73.13614
G1 X167.626 Y16.828 E73.15879
G1 X168.214 Y17.172 E73.18144
G1 X168.758 Y17.582 E73.2041
G1 X169.249 Y18.053 E73.22673
G1 X169.683 Y18.578 E73.24939
G1 X170.052 Y19.15 E73.27203
G1 X170.351 Y19.762 E73.29468
G1 X170.576 Y20.404 E73.31731
G1 X170.725 Y21.069 E73.33997
G1 X170.8 Y22 E73.37104
G1 X170.8 Y98 E75.89881
G1 X170.76 Y98.68 E75.92146
G1 X170.641 Y99.35 E75.9441
G1 X170.444 Y100.002 E75.96675
G1 X170.172 Y100.626 E75.98939
G1 X169.828 Y101.214 E76.01205
G1 X169.418 Y101.758 E76.03471
G1 X168.947 Y102.249 E76.05734
G1 X168.422 Y102.683 E76.07999
G1 X167.85 Y103.052 E76.10263
G1 X167.238 Y103.351 E76.12529
G1 X166.596 Y103.576 E76.14791
G1 X165.931 Y103.725 E76.17058
G1 X165 Y103.8 E76.20164
G1 X55 Y103.8 E79.86026
G1 X54.32 Y103.76 E79.88292
G1 X53.65 Y103.641 E79.90555
G1 X52.998 Y103.444 E79.9282
G1 X52.374 Y103.172 E79.95084
G1 X51.786 Y102.828 E79.9735
G1 X51.242 Y102.418 E79.99616
G1 X50.751 Y101.947 E80.01879
G1 X50.317 Y101.422 E80.04144
G1 X49.948 Y100.85 E80.06408
G1 X49.649 Y100.238 E80.08674
G1 X49.424 Y99.596 E80.10936
G1 X49.275 Y98.931 E80.13203
G1 X49.2 Y98 E80.1631
G1 X49.2 Y22 E82.69087
G1 X49.24 Y21.32 E82.71352
G1 X49.359 Y20.65 E82.73615
G1 X49.556 Y19.998 E82.75881
G0 F6000 X49.956 Y20.071
G1 F1200 X50.228 Y19.473 E82.78066
G1 X50.57 Y18.912 E82.80251
G1 X50.978 Y18.397 E82.82436
G1 X51.445 Y17.935 E82.84621
G1 X51.965 Y17.534 E82.86805
G1 X52.529 Y17.198 E82.88989
G1 X53.131 Y16.934 E82.91175
G1 X53.76 Y16.744 E82.93361
G1 X54.407 Y16.633 E82.95544
G1 X55 Y16.6 E82.97519
G1 X165 Y16.6 E86.63381
G1 X165.656 Y16.64 E86.65567
G1 X166.302 Y16.759 E86.67752
G1 X166.929 Y16.956 E86.69938
G1 X167.527 Y17.228 E86.72123
G1 X168.088 Y17.57 E86.74308
G1 X168.603 Y17.978 E86.76493
G1 X169.065 Y18.445 E86.78678
G1 X169.466 Y18.965 E86.80862
G1 X169.802 Y19.529 E86.83046
G1 X170.066 Y20.131 E86.85232
G1 X170.256 Y20.76 E86.87417
G1 X170.367 Y21.407 E86.89601
G1 X170.4 Y22 E86.91576
G1 X170.4 Y98 E89.44353
G1 X170.36 Y98.656 E89.46539
G1 X170.241 Y99.302 E89.48724
G1 X170.044 Y99.929 E89.5091
G1 X169.772 Y100.527 E89.53095
G1 X169.43 Y101.088 E89.5528
G1 X169.022 Y101.603 E89.57465
G1 X168.555 Y102.065 E89.5965
G1 X168.035 Y102.466 E89.61834
G1 X167.471 Y102.802 E89.64018
G1 X166.869 Y103.066 E89.66204
G1 X166.24 Y103.256 E89.6839
G1 X165.593 Y103.367 E89.70573
G1 X165 Y103.4 E89.72548
G1 X55 Y103.4 E93.3841
G1 X54.344 Y103.36 E93.40596
G1 X53.698 Y103.241 E93.42781
G1 X53.071 Y103.044 E93.44966
G1 X52.473 Y102.772 E93.47151
G1 X51.912 Y102.43 E93.49337
G1 X51.397 Y102.022 E93.51522
G1 X50.935 Y101.555 E93.53707
G1 X50.534 Y101.035 E93.55891
G1 X50.198 Y100.471 E93.58075
G1 X49.934 Y99.869 E93.60261
G1 X49.744 Y99.24 E93.62446
G1 X49.633 Y98.593 E93.6463
G1 X49.6 Y98 E93.66605
G1 X49.6 Y22 E96.19382
G1 X49.64 Y21.344 E96.21568
G1 X49.759 Y20.698 E96.23753
G1 X49.956 Y20.071 E96.25939
G0 F6000 X50.356 Y20.148
G1 F1200 X50.627 Y19.576 E96.28044
G1 X50.967 Y19.044 E96.30144
G1 X51.373 Y18.559 E96.32248
G1 X51.836 Y18.129 E96.34349
G1 X52.35 Y17.76 E96.36454
G1 X52.906 Y17.46 E96.38555
G1 X53.495 Y17.232 E96.40656
G1 X54.109 Y17.08 E96.42759
G1 X55 Y17 E96.45735
G1 X165 Y17 E100.11596
G1 X165.631 Y17.04 E100.13699
G1 X166.252 Y17.159 E100.15802
G1 X166.852 Y17.356 E100.17903
G1 X167.424 Y17.627 E100.20008
G1 X167.956 Y17.967 E100.22108
G1 X168.441 Y18.373 E100.24212
G1 X168.871 Y18.836 E100.26313
G1 X169.24 Y19.35 E100.28418
G1 X169.54 Y19.906 E100.30519
G1 X169.768 Y20.495 E100.3262
G1 X169.92 Y21.109 E100.34723
G1 X170 Y22 E100.37699
G1 X170 Y98 E102.90476
G1 X169.96 Y98.631 E102.92579
G1 X169.841 Y99.252 E102.94682
G1 X169.644 Y99.852 E102.96782
G1 X169.373 Y100.424 E102.98887
G1 X169.033 Y100.956 E103.00987
G1 X168.627 Y101.441 E103.03091
G1 X168.164 Y101.871 E103.05193
G1 X167.65 Y102.24 E103.07297
G1 X167.094 Y102.54 E103.09399
G1 X166.505 Y102.768 E103.11499
G1 X165.891 Y102.92 E103.13603
G1 X165 Y103 E103.16578
G1 X55 Y103 E106.8244
G1 X54.369 Y102.96 E106.84543
G1 X53.748 Y102.841 E106.86646
G1 X53.148 Y102.644 E106.88746
G1 X52.576 Y102.373 E106.90851
G1 X52.044 Y102.033 E106.92951
G1 X51.559 Y101.627 E106.95055
G1 X51.129 Y101.164 E106.97157
G1 X50.76 Y100.65 E106.99261
G1 X50.46 Y100.094 E107.01363
G1 X50.232 Y99.505 E107.03463
G1 X50.08 Y98.891 E107.05567
G1 X50 Y98 E107.08542
G1 X50 Y22 E109.61319
G1 X50.04 Y21.369 E109.63422
G1 X50.159 Y20.748 E109.65525
G1 X50.356 Y20.148 E109.67626
G0 F6000 X50.755 Y20.227
G1 F1200 X51.026 Y19.684 E109.69644
G1 X51.365 Y19.181 E109.71662
G1 X51.767 Y18.728 E109.73676
G1 X52.225 Y18.331 E109.75692
G1 X52.732 Y17.998 E109.7771
G1 X53.278 Y17.734 E109.79727
G1 X53.854 Y17.545 E109.81743
G1 X54.45 Y17.433 E109.8376
G1 X55 Y17.4 E109.85593
G1 X165 Y17.4 E113.51454
G1 X165.605 Y17.44 E113.53471
G1 X166.199 Y17.559 E113.55486
G1 X166.773 Y17.755 E113.57503
G1 X167.316 Y18.026 E113.59521
G1 X167.819 Y18.365 E113.61539
G1 X168.272 Y18.767 E113.63553
G1 X168.669 Y19.225 E113.65569
G1 X169.002 Y19.732 E113.67587
G1 X169.266 Y20.278 E113.69604
G1 X169.455 Y20.854 E113.7162
G1 X169.567 Y21.45 E113.73637
G1 X169.6 Y22 E113.7547
G1 X169.6 Y98 E116.28247
G1 X169.56 Y98.605 E116.30263
G1 X169.441 Y99.199 E116.32278
G1 X169.245 Y99.773 E116.34296
G1 X168.974 Y100.316 E116.36314
G1 X168.635 Y100.819 E116.38332
G1 X168.233 Y101.272 E116.40346
G1 X167.775 Y101.669 E116.42362
G1 X167.268 Y102.002 E116.44379
G1 X166.722 Y102.266 E116.46397
