;FLAVOR:Marlin
;TIME:2055
;Filament used: 1.35254m
;Layer height: 0.2
;MINX:83
;MINY:49.5
;MINZ:0.2
;MAXX:137
;MAXY:137
;MAXZ:6.8
;Generated with Cura_SteamEngine 4.13.0
M140 S50
M105
M190 S50
M104 S200
M105
M109 S200
M82 ;absolute extrusion mode
M201 X500.00 Y500.00 Z100.00 E5000.00 ;Setup machine max acceleration
M203 X500.00 Y500.00 Z10.00 E50.00 ;Setup machine max feedrate
M204 P500.00 R1000.00 T500.00 ;Setup Print/Retract/Travel acceleration
M205 X8.00 Y8.00 Z0.40 E5.00 ;Setup Jerk
M220 S100 ;Reset Feedrate
M221 S100 ;Reset Flowrate

G28 ;Home

G92 E0 ;Reset Extruder
G1 Z2.0 F3000 ;Move Z Axis up
G1 X10.1 Y20 Z0.28 F5000.0 ;Move to start position
G1 X10.1 Y200.0 Z0.28 F1500.0 E15 ;Draw the first line
G1 X10.4 Y200.0 Z0.28 F5000.0 ;Move to side a little
G1 X10.4 Y20 Z0.28 F1500.0 E30 ;Draw the second line
G92 E0 ;Reset Extruder
G1 Z2.0 F3000 ;Move Z Axis up

G92 E0
G92 E0
G1 F2700 E-5
;LAYER_COUNT:34
;LAYER:0
M107
G0 F6000 X84.996 Y54.203 Z0.2
;TYPE:SKIRT
G1 F2700 E0
G1 F1200 X85.566 Y53.458 E0.0312
G1 X86.198 Y52.764 E0.06242
G1 X86.886 Y52.127 E0.0936
G1 X87.626 Y51.551 E0.12479
G1 X88.412 Y51.039 E0.15599
G1 X89.239 Y50.597 E0.18718
G1 X90.101 Y50.227 E0.21838
G1 X90.991 Y49.931 E0.24958
G1 X91.903 Y49.713 E0.28077
G1 X92.83 Y49.572 E0.31195
G1 X93.701 Y49.513 E0.34099
G1 X94.022 Y49.504 E0.35167
G1 X94.33 Y49.5 E0.36191
G1 X125.293 Y49.5 E1.39175
G1 X126.149 Y49.511 E1.42022
G1 X127.085 Y49.565 E1.4514
G1 X128.013 Y49.697 E1.48258
G1 X128.927 Y49.909 E1.51379
G1 X129.819 Y50.198 E1.54497
G1 X130.684 Y50.561 E1.57617
G1 X131.514 Y50.997 E1.60736
G1 X132.305 Y51.502 E1.63857
G1 X133.049 Y52.073 E1.66976
G1 X133.742 Y52.705 E1.70096
G1 X134.379 Y53.393 E1.73214
G1 X134.954 Y54.134 E1.76334
G1 X135.465 Y54.92 E1.79452
G1 X135.907 Y55.748 E1.82574
G1 X136.276 Y56.61 E1.85692
G1 X136.571 Y57.5 E1.88811
G1 X136.789 Y58.412 E1.9193
G1 X136.929 Y59.34 E1.95051
G1 X136.987 Y60.201 E1.97921
G1 X136.996 Y60.521 E1.98986
G1 X137 Y60.83 E2.00014
G1 X137 Y92.266 E3.0457
G1 X136.995 Y93.637 E3.0913
G1 X137 Y94.345 E3.11485
G1 X136.999 Y125.4 E4.14775
G1 X136.99 Y126.127 E4.17193
G1 X136.939 Y127.064 E4.20314
G1 X136.807 Y127.992 E4.23432
G1 X136.598 Y128.906 E4.2655
G1 X136.311 Y129.799 E4.2967
G1 X135.949 Y130.665 E4.32792
G1 X135.515 Y131.496 E4.3591
G1 X135.011 Y132.287 E4.39029
G1 X134.442 Y133.032 E4.42147
G1 X133.811 Y133.727 E4.45269
G1 X133.124 Y134.365 E4.48388
G1 X132.385 Y134.942 E4.51506
G1 X131.599 Y135.454 E4.54626
G1 X130.773 Y135.897 E4.57744
G1 X129.911 Y136.269 E4.60866
G1 X129.022 Y136.565 E4.63983
G1 X128.11 Y136.785 E4.67103
G1 X127.183 Y136.926 E4.70222
G1 X126.299 Y136.987 E4.73169
G1 X125.978 Y136.996 E4.74237
G1 X125.67 Y137 E4.75261
G1 X94.565 Y136.999 E5.78717
G1 X93.867 Y136.99 E5.81039
G1 X92.931 Y136.938 E5.84157
G1 X92.002 Y136.806 E5.87278
G1 X91.088 Y136.596 E5.90397
G1 X90.195 Y136.309 E5.93517
G1 X89.33 Y135.946 E5.96637
G1 X88.499 Y135.512 E5.99755
G1 X87.708 Y135.008 E6.02874
G1 X86.963 Y134.438 E6.05994
G1 X86.269 Y133.807 E6.09114
G1 X85.632 Y133.12 E6.1223
G1 X85.055 Y132.38 E6.15351
G1 X84.543 Y131.594 E6.18471
G1 X84.1 Y130.767 E6.21591
G1 X83.729 Y129.906 E6.2471
G1 X83.433 Y129.016 E6.27829
G1 X83.214 Y128.104 E6.30949
G1 X83.073 Y127.177 E6.34067
G1 X83.013 Y126.288 E6.37031
G1 X83.004 Y125.955 E6.38139
G1 X83 Y125.658 E6.39127
G1 X83 Y94.234 E7.43644
G1 X83.005 Y92.863 E7.48204
G1 X83 Y92.155 E7.50558
G1 X83.001 Y61.025 E8.54097
G1 X83.01 Y60.36 E8.56309
G1 X83.063 Y59.424 E8.59427
G1 X83.195 Y58.495 E8.62548
G1 X83.406 Y57.581 E8.65668
G1 X83.694 Y56.689 E8.68786
G1 X84.057 Y55.824 E8.71906
G1 X84.492 Y54.993 E8.75026
G1 X84.996 Y54.203 E8.78142
G0 F6000 X85.392 Y54.335
G1 F1200 X85.961 Y53.611 E8.81205
G1 X86.589 Y52.939 E8.84264
G1 X87.274 Y52.323 E8.87328
G1 X88.01 Y51.77 E8.9039
G1 X88.791 Y51.282 E8.93453
G1 X89.611 Y50.864 E8.96514
G1 X90.465 Y50.519 E8.99578
G1 X91.345 Y50.249 E9.02639
G1 X92.245 Y50.057 E9.057
G1 X93.159 Y49.943 E9.08764
G1 X93.712 Y49.913 E9.10606
G1 X94.033 Y49.904 E9.11674
G1 X94.33 Y49.9 E9.12662
G1 X125.293 Y49.9 E10.15645
G1 X126.143 Y49.911 E10.18472
G1 X127.062 Y49.964 E10.21534
G1 X127.973 Y50.097 E10.24596
G1 X128.869 Y50.308 E10.27658
G1 X129.743 Y50.596 E10.30719
G1 X130.59 Y50.959 E10.33783
G1 X131.401 Y51.394 E10.36844
G1 X132.171 Y51.898 E10.39905
G1 X132.895 Y52.467 E10.42968
G1 X133.567 Y53.097 E10.46032
G1 X134.182 Y53.782 E10.49093
G1 X134.735 Y54.518 E10.52155
G1 X135.222 Y55.299 E10.55217
G1 X135.639 Y56.12 E10.58279
G1 X135.984 Y56.974 E10.61343
G1 X136.253 Y57.854 E10.64403
G1 X136.445 Y58.755 E10.67467
G1 X136.558 Y59.668 E10.70527
G1 X136.587 Y60.212 E10.72339
G1 X136.596 Y60.532 E10.73404
G1 X136.6 Y60.83 E10.74395
G1 X136.6 Y92.265 E11.78948
G1 X136.595 Y93.64 E11.83522
G1 X136.6 Y94.348 E11.85877
G1 X136.599 Y125.395 E12.89139
G1 X136.59 Y126.122 E12.91557
G1 X136.539 Y127.041 E12.94619
G1 X136.408 Y127.953 E12.97683
G1 X136.198 Y128.849 E13.00744
G1 X135.912 Y129.724 E13.03806
G1 X135.551 Y130.571 E13.06868
G1 X135.117 Y131.383 E13.09931
G1 X134.615 Y132.155 E13.12993
G1 X134.047 Y132.88 E13.16057
G1 X133.419 Y133.553 E13.19118
G1 X132.735 Y134.169 E13.2218
G1 X132 Y134.723 E13.25241
G1 X131.22 Y135.212 E13.28303
G1 X130.4 Y135.631 E13.31366
G1 X129.547 Y135.977 E13.34427
G1 X128.667 Y136.248 E13.3749
G1 X127.767 Y136.441 E13.40551
G1 X126.853 Y136.556 E13.43615
G1 X126.288 Y136.587 E13.45497
G1 X125.967 Y136.596 E13.46565
G1 X125.67 Y136.6 E13.47553
G1 X94.57 Y136.599 E14.50992
G1 X93.872 Y136.59 E14.53314
G1 X92.953 Y136.538 E14.56376
G1 X92.042 Y136.407 E14.59437
G1 X91.146 Y136.197 E14.62498
G1 X90.271 Y135.91 E14.6556
G1 X89.424 Y135.548 E14.68624
G1 X88.612 Y135.114 E14.71686
G1 X87.841 Y134.612 E14.74746
G1 X87.116 Y134.044 E14.7781
G1 X86.443 Y133.415 E14.80873
G1 X85.828 Y132.731 E14.83933
G1 X85.274 Y131.996 E14.86994
G1 X84.786 Y131.215 E14.90057
G1 X84.367 Y130.395 E14.9312
G1 X84.021 Y129.542 E14.96181
G1 X83.751 Y128.662 E14.99243
G1 X83.558 Y127.761 E15.02308
G1 X83.444 Y126.848 E15.05368
G1 X83.413 Y126.277 E15.0727
G1 X83.404 Y125.944 E15.08378
G1 X83.4 Y125.658 E15.09329
G1 X83.4 Y94.235 E16.13843
G1 X83.405 Y92.86 E16.18416
G1 X83.4 Y92.152 E16.20771
G1 X83.401 Y61.031 E17.2428
G1 X83.41 Y60.366 E17.26492
G1 X83.462 Y59.446 E17.29556
G1 X83.594 Y58.535 E17.32618
G1 X83.805 Y57.639 E17.3568
G1 X84.092 Y56.764 E17.38742
G1 X84.455 Y55.918 E17.41804
G1 X84.889 Y55.106 E17.44867
G1 X85.392 Y54.335 E17.47928
G0 F6000 X85.788 Y54.471
G1 F1200 X86.355 Y53.767 E17.50935
G1 X86.981 Y53.117 E17.53936
G1 X87.662 Y52.524 E17.5694
G1 X88.394 Y51.994 E17.59946
G1 X89.169 Y51.531 E17.62948
G1 X89.982 Y51.138 E17.65952
G1 X90.827 Y50.818 E17.68957
G1 X91.696 Y50.575 E17.71958
G1 X92.584 Y50.409 E17.74963
G1 X93.723 Y50.313 E17.78765
G1 X94.044 Y50.304 E17.79833
G1 X94.33 Y50.3 E17.80784
G1 X125.293 Y50.3 E18.83767
G1 X126.137 Y50.311 E18.86575
G1 X127.039 Y50.364 E18.8958
G1 X127.932 Y50.496 E18.92582
G1 X128.81 Y50.707 E18.95586
G1 X129.666 Y50.995 E18.9859
G1 X130.493 Y51.357 E19.01592
G1 X131.285 Y51.792 E19.04598
G1 X132.036 Y52.294 E19.07602
G1 X132.739 Y52.861 E19.10606
G1 X133.389 Y53.488 E19.1361
G1 X133.981 Y54.17 E19.16614
G1 X134.511 Y54.901 E19.19617
G1 X134.973 Y55.677 E19.2262
G1 X135.366 Y56.49 E19.25624
G1 X135.684 Y57.335 E19.28627
G1 X135.927 Y58.205 E19.31631
G1 X136.092 Y59.093 E19.34635
G1 X136.187 Y60.223 E19.38407
G1 X136.196 Y60.543 E19.39472
G1 X136.2 Y60.83 E19.40426
G1 X136.2 Y92.263 E20.44973
G1 X136.195 Y93.643 E20.49563
G1 X136.2 Y94.351 E20.51918
G1 X136.199 Y125.39 E21.55154
G1 X136.19 Y126.117 E21.57572
G1 X136.139 Y127.019 E21.60577
G1 X136.008 Y127.913 E21.63582
G1 X135.799 Y128.791 E21.66584
G1 X135.513 Y129.648 E21.69589
G1 X135.152 Y130.476 E21.72593
G1 X134.72 Y131.268 E21.75594
G1 X134.219 Y132.02 E21.78599
G1 X133.653 Y132.724 E21.81604
G1 X133.028 Y133.375 E21.84605
G1 X132.347 Y133.969 E21.87611
G1 X131.616 Y134.5 E21.90616
G1 X130.842 Y134.964 E21.93617
G1 X130.029 Y135.358 E21.96622
G1 X129.185 Y135.678 E21.99624
G1 X128.315 Y135.923 E22.0263
G1 X127.428 Y136.089 E22.05632
G1 X126.277 Y136.187 E22.09474
G1 X125.956 Y136.196 E22.10542
G1 X125.67 Y136.2 E22.11493
G1 X94.575 Y136.199 E23.14916
G1 X93.877 Y136.19 E23.17237
G1 X92.976 Y136.139 E23.20239
G1 X92.082 Y136.007 E23.23245
G1 X91.204 Y135.798 E23.26247
G1 X90.347 Y135.511 E23.29253
G1 X89.52 Y135.15 E23.32254
G1 X88.727 Y134.717 E23.35259
G1 X87.976 Y134.216 E23.38262
G1 X87.272 Y133.65 E23.41266
G1 X86.621 Y133.024 E23.4427
G1 X86.028 Y132.343 E23.47273
G1 X85.498 Y131.612 E23.50276
G1 X85.034 Y130.837 E23.53281
G1 X84.64 Y130.024 E23.56286
G1 X84.32 Y129.18 E23.59288
G1 X84.076 Y128.31 E23.62293
G1 X83.91 Y127.422 E23.65298
G1 X83.813 Y126.267 E23.69153
G1 X83.804 Y125.934 E23.70261
G1 X83.8 Y125.658 E23.71179
G1 X83.8 Y94.237 E24.75685
G1 X83.805 Y92.857 E24.80275
G1 X83.8 Y92.149 E24.8263
G1 X83.801 Y61.036 E25.86112
G1 X83.81 Y60.371 E25.88324
G1 X83.862 Y59.469 E25.91329
G1 X83.994 Y58.576 E25.94332
G1 X84.204 Y57.698 E25.97335
G1 X84.491 Y56.841 E26.0034
G1 X84.853 Y56.014 E26.03343
G1 X85.286 Y55.222 E26.06345
G1 X85.788 Y54.471 E26.0935
G1 F2700 E21.0935
;MESH:OLED-SSD1306-case-back.stl
G0 F6000 X103.827 Y64.165
G0 X103.827 Y62.73
G0 X102.072 Y63.072
G0 X101.9 Y66.1
;TYPE:WALL-INNER
G1 F2700 E26.0935
G1 F1200 X118.1 Y66.1 E26.63231
G1 X118.1 Y62.9 E26.73874
G1 X101.9 Y62.9 E27.27756
G1 X101.9 Y66.1 E27.38399
G0 F6000 X102.3 Y65.7
;TYPE:WALL-OUTER
G1 F1200 X117.7 Y65.7 E27.8962
G1 X117.7 Y63.3 E27.97602
G1 X102.3 Y63.3 E28.48823
G1 X102.3 Y65.7 E28.56805
G1 F2700 E23.56805
G0 F6000 X102 Y65.7
G0 X101.704 Y66.296
G0 X101.704 Y66.71
G0 X96.072 Y67.072
G0 X95.9 Y70.1
;TYPE:WALL-INNER
G1 F2700 E28.56805
G1 F1200 X124.1 Y70.1 E29.50599
G1 X124.1 Y66.9 E29.61242
G1 X95.9 Y66.9 E30.55036
G1 X95.9 Y70.1 E30.65679
G0 F6000 X96.3 Y69.7
;TYPE:WALL-OUTER
G1 F1200 X123.7 Y69.7 E31.56812
G1 X123.7 Y67.3 E31.64794
G1 X96.3 Y67.3 E32.55927
G1 X96.3 Y69.7 E32.63909
G1 F2700 E27.63909
G0 F6000 X96 Y69.7
G0 X95.9 Y70.29
G0 X95.9 Y70.71
G0 X95.9 Y74.1
;TYPE:WALL-INNER
G1 F2700 E32.63909
G1 F1200 X124.1 Y74.1 E33.57703
G1 X124.1 Y70.9 E33.68346
G1 X95.9 Y70.9 E34.6214
G1 X95.9 Y74.1 E34.72783
G0 F6000 X96.3 Y73.7
;TYPE:WALL-OUTER
G1 F1200 X123.7 Y73.7 E35.63916
G1 X123.7 Y71.3 E35.71898
G1 X96.3 Y71.3 E36.63031
G1 X96.3 Y73.7 E36.71013
G1 F2700 E31.71013
G0 F6000 X96 Y73.7
G0 X95.9 Y74.29
G0 X95.9 Y74.71
G0 X95.9 Y78.1
;TYPE:WALL-INNER
G1 F2700 E36.71013
G1 F1200 X124.1 Y78.1 E37.64807
G1 X124.1 Y74.9 E37.7545
G1 X95.9 Y74.9 E38.69244
G1 X95.9 Y78.1 E38.79887
G0 F6000 X96.3 Y77.7
;TYPE:WALL-OUTER
G1 F1200 X123.7 Y77.7 E39.7102
G1 X123.7 Y75.3 E39.79002
G1 X96.3 Y75.3 E40.70135
G1 X96.3 Y77.7 E40.78117
G1 F2700 E35.78117
G0 F6000 X96 Y77.7
G0 X95.9 Y78.29
G0 X95.9 Y78.71
G0 X95.9 Y82.1
;TYPE:WALL-INNER
G1 F2700 E40.78117
G1 F1200 X124.1 Y82.1 E41.71911
G1 X124.1 Y78.9 E41.82554
G1 X95.9 Y78.9 E42.76348
G1 X95.9 Y82.1 E42.86991
G0 F6000 X96.3 Y81.7
;TYPE:WALL-OUTER
G1 F1200 X123.7 Y81.7 E43.78124
G1 X123.7 Y79.3 E43.86106
G1 X96.3 Y79.3 E44.77239
G1 X96.3 Y81.7 E44.85221
G1 F2700 E39.85221
G0 F6000 X96 Y81.7
G0 X95.9 Y82.29
G0 X95.9 Y82.71
G0 X95.9 Y86.1
;TYPE:WALL-INNER
G1 F2700 E44.85221
G1 F1200 X124.1 Y86.1 E45.79015
G1 X124.1 Y82.9 E45.89658
G1 X95.9 Y82.9 E46.83452
G1 X95.9 Y86.1 E46.94095
G0 F6000 X96.3 Y85.7
;TYPE:WALL-OUTER
G1 F1200 X123.7 Y85.7 E47.85228
G1 X123.7 Y83.3 E47.9321
G1 X96.3 Y83.3 E48.84343
G1 X96.3 Y85.7 E48.92325
G1 F2700 E43.92325
G0 F6000 X96 Y85.7
G0 X99.9 Y86.29
G0 X99.9 Y86.69
G0 X99.9 Y91.6
;TYPE:WALL-INNER
G1 F2700 E48.92325
G1 F1200 X120.1 Y91.6 E49.59511
G1 X120.1 Y86.9 E49.75143
G1 X99.9 Y86.9 E50.42329
G1 X99.9 Y91.6 E50.57961
G0 F6000 X100.3 Y91.2
;TYPE:WALL-OUTER
G1 F1200 X119.7 Y91.2 E51.22486
G1 X119.7 Y87.3 E51.35457
G1 X100.3 Y87.3 E51.99982
G1 X100.3 Y91.2 E52.12953
G0 F6000 X100 Y91.2
G0 X125.4 Y91.9
;TYPE:WALL-INNER
G1 F1200 X120.1 Y91.9 E52.30581
G1 X99.9 Y91.9 E52.81096
G1 X94.6 Y91.9 E52.98724
G1 X94.6 Y61.1 E54.01165
G1 X125.4 Y61.1 E55.03607
G1 X125.4 Y91.9 E56.06048
G0 F6000 X125.8 Y92.3
;TYPE:WALL-OUTER
G1 F1200 X94.2 Y92.3 E57.1115
G1 X94.2 Y60.7 E58.16252
G1 X125.8 Y60.7 E59.21354
G1 X125.8 Y92.3 E60.26456
G0 F6000 X125.53 Y92.03
G0 X125.29 Y91.51
G0 X125.01 Y91.51
;TYPE:SKIN
G1 F1200 X120.49 Y91.51 E60.4149
G1 X120.49 Y86.51 E60.5812
G1 X99.51 Y86.51 E61.27899
G1 X99.51 Y91.51 E61.44529
G1 X94.99 Y91.51 E61.59563
G1 X94.99 Y61.49 E62.5941
G1 X125.01 Y61.49 E63.59257
G1 X125.01 Y91.51 E64.59104
G1 F2700 E59.59104
G0 F6000 X125.29 Y91.51
G0 X125.19 Y86.24
G0 X124.29 Y86.24
G1 F2700 E64.59104
G0 F6000 X124.49 Y86.49
G1 F1200 X124.49 Y82.51 E64.72341
G1 X95.51 Y82.51 E65.68729
G1 X95.51 Y86.49 E65.81967
G1 X124.49 Y86.49 E66.78355
G1 F2700 E61.78355
G0 F6000 X124.21 Y86.24
G0 X124.21 Y82.71
G0 X124.21 Y82.29
G1 F2700 E66.78355
G0 F6000 X124.49 Y82.49
G1 F1200 X124.49 Y78.51 E66.91592
G1 X95.51 Y78.51 E67.8798
G1 X95.51 Y82.49 E68.01218
G1 X124.49 Y82.49 E68.97605
G1 F2700 E63.97605
G0 F6000 X124.21 Y82.24
G0 X124.21 Y78.71
G0 X124.21 Y78.29
G1 F2700 E68.97605
G0 F6000 X124.49 Y78.49
G1 F1200 X124.49 Y74.51 E69.10843
G1 X95.51 Y74.51 E70.07231
G1 X95.51 Y78.49 E70.20468
G1 X124.49 Y78.49 E71.16856
G1 F2700 E66.16856
G0 F6000 X124.21 Y78.24
G0 X124.21 Y74.71
G0 X124.21 Y74.29
G1 F2700 E71.16856
G0 F6000 X124.49 Y74.49
G1 F1200 X124.49 Y70.51 E71.30094
G1 X95.51 Y70.51 E72.26482
G1 X95.51 Y74.49 E72.39719
G1 X124.49 Y74.49 E73.36107
G1 F2700 E68.36107
G0 F6000 X124.21 Y74.24
G0 X124.21 Y70.71
G0 X124.21 Y70.29
G1 F2700 E73.36107
G0 F6000 X124.49 Y70.49
G1 F1200 X124.49 Y66.51 E73.49345
G1 X95.51 Y66.51 E74.45732
G1 X95.51 Y70.49 E74.5897
G1 X124.49 Y70.49 E75.55358
G0 F6000 X124.24 Y70.24
G0 X123.928 Y67.072
G0 X118.49 Y66.79
G0 X118.49 Y66.49
G1 F1200 X118.49 Y62.51 E75.68595
G1 X101.51 Y62.51 E76.25071
G1 X101.51 Y66.49 E76.38309
G1 X118.49 Y66.49 E76.94784
G1 F2700 E71.94784
G0 F6000 X118.49 Y66.79
G0 X124.296 Y66.704
G0 X125.19 Y66.704
G0 X125.29 Y62.058
G1 F2700 E76.94784
G0 F6000 X124.849 Y62.058
G1 F1200 X124.44 Y61.649 E76.96708
G0 F6000 X123.875 Y61.649
G1 F1200 X124.849 Y62.624 E77.01292
G0 F6000 X124.849 Y63.189
G1 F1200 X123.309 Y61.649 E77.08536
G0 F6000 X122.743 Y61.649
G1 F1200 X124.849 Y63.755 E77.18442
G0 F6000 X124.849 Y64.321
G1 F1200 X122.178 Y61.649 E77.31008
G0 F6000 X121.612 Y61.649
G1 F1200 X124.849 Y64.886 E77.46233
G0 F6000 X124.849 Y65.452
G1 F1200 X121.046 Y61.649 E77.64122
G0 F6000 X120.481 Y61.649
G1 F1200 X124.849 Y66.018 E77.8467
G0 F6000 X124.615 Y66.349
G1 F1200 X119.915 Y61.649 E78.06777
G0 F6000 X119.349 Y61.649
G1 F1200 X124.049 Y66.349 E78.28884
G0 F6000 X123.484 Y66.349
G1 F1200 X118.784 Y61.649 E78.50992
G0 F6000 X118.218 Y61.649
G1 F1200 X122.918 Y66.349 E78.73099
G0 F6000 X122.352 Y66.349
G1 F1200 X118.648 Y62.646 E78.90519
G0 F6000 X118.352 Y62.349
G1 F1200 X117.652 Y61.649 E78.93812
G0 F6000 X117.086 Y61.649
G1 F1200 X117.787 Y62.349 E78.97107
G0 F6000 X117.221 Y62.349
G1 F1200 X116.521 Y61.649 E79.00399
G0 F6000 X115.955 Y61.649
G1 F1200 X116.655 Y62.349 E79.03692
G0 F6000 X116.089 Y62.349
G1 F1200 X115.389 Y61.649 E79.06984
G0 F6000 X114.824 Y61.649
G1 F1200 X115.524 Y62.349 E79.10277
G0 F6000 X114.958 Y62.349
G1 F1200 X114.258 Y61.649 E79.1357
G0 F6000 X113.692 Y61.649
G1 F1200 X114.392 Y62.349 E79.16862
G0 F6000 X113.827 Y62.349
G1 F1200 X113.127 Y61.649 E79.20155
G0 F6000 X112.561 Y61.649
G1 F1200 X113.261 Y62.349 E79.23447
G0 F6000 X112.695 Y62.349
G1 F1200 X111.995 Y61.649 E79.2674
G0 F6000 X111.43 Y61.649
G1 F1200 X112.13 Y62.349 E79.30033
G0 F6000 X111.564 Y62.349
G1 F1200 X110.864 Y61.649 E79.33325
G0 F6000 X110.298 Y61.649
G1 F1200 X110.998 Y62.349 E79.36618
G0 F6000 X110.433 Y62.349
G1 F1200 X109.733 Y61.649 E79.3991
G0 F6000 X109.167 Y61.649
G1 F1200 X109.867 Y62.349 E79.43203
G0 F6000 X109.301 Y62.349
G1 F1200 X108.601 Y61.649 E79.46495
G0 F6000 X108.036 Y61.649
G1 F1200 X108.736 Y62.349 E79.49788
G0 F6000 X108.17 Y62.349
G1 F1200 X107.47 Y61.649 E79.53081
G0 F6000 X106.904 Y61.649
